X:6029
T:Shutters Hornpipe
O:england
R:Hornpipe
M:4/4
N:Very many versions exist, from Northumbria to Wales
L:1/8
K:G
G2G2 GABc | dcBA GBAG | A2A>A A2ed |cBAG FAFD |\
G2G2 GABc | dcBA G2g2 |
fafd egec | d2d>d d4::\
A2A>A A2Bc | dBAG FAFD | d2d>d d2ef |gfed cecA|
e2c2 efge | d2B2 cdec | BABc dcBA | G2G>G G4:|
